X: 4815
T: Mr Busby Maitland
C: Nathaniel Gow
R: reel
B: RSCDS 48-15
Z: 2015 by John Chambers <jc:trillian.mit.edu>
N: Tune for the dance MacLeod's Wedding
M: 4/4
L: 1/8
K: D
A |\
"D"FDAD "F#/D"d2dA | "D"d2df "E/A7"eEEA | "D"FDAF "Bm"d2dB | "A7"cdeg "D"fddA |
"D"FDAD "F#/D"d2dA | "D"d2df "E/A7"eEEA | "D"FDAF "D/G"dABG | "D"FA"G"dg "D"fd d ||
d |\
"D"fede "Bm"fgaf | "Em"gfed "A7"cAeg | "D"fedf "F#/D"fgaf | "A"ecdB "D"Addg |
"D"fdfg "F#/D"fgaf | "em"gfed "A7"cAeg | "D"fd"G"gb "D"af"A7"ge | "Bm"fd"A7"ec "D"dD D |]
%%center Book48/4815-Mr_Busby_Maitland-D-16-4.abc

%%newpage
%%center OTHER TRANSCRIPTIONS
%%sep 3 1 500
%%sep 1 1 500

%%sep 1 1 500
%%sep 1 1 500

